!!!OTL: UND ALS DIE SCHNEIDER JAHRESTAG HATTN
!!!ARE: Europa, Mitteleuropa, Deutschland
!!!SCT: F0842
!!!YEM: Copyright 1995, estate of Helmut Schaffrath.
**kern
*ICvox
*Ivox
*M2/4
*k[f#]
*G:
{8d
=1
8g
8g
8g
8g
=2
8g
8g
8g}
{8b
=3
8b
8a
8a
8f#
=4
4g
8r}
{8d
=5
8b
8b
8b
8b
=6
8b
8b
8b}
{8dd
=7
8dd
8cc
8cc
8a
=8
4b
8r}
{8g
=9
8dd
8dd
8dd
8dd
=10
4dd
8b}
{8g
=11
8ee
8ee
8ee
8ee
=12
4gg
8ff#}
{8ee
=13
8dd
8dd
8cc
8a
=14
4g
8r}
{8g
=15
8dd
8dd
8dd
8dd
=16
4dd
8b}
{8g
=17
8ee
8ee
8ee
8ee
=18
4gg
8ff#}
{8ee
=19
8dd
8dd
8cc
8a
=20
4g
4r}
=21
{16g
16g
16b
16b
8dd
8g
=22
8f#
8a
8dd
8r}
=23
{8d
8f#
8a
8f#
=24
4a
4g}
=25
{16g
16g
16b
16b
8dd
8g
=26
8f#
8a
8dd
8r}
=27
{8d
8f#
8a
8f#
=28
4a
8g}
{8gg
=29
8.g
16g
8g
8gg
=30
8.g
16g
4g}
=31
{2gg
=32
8g
4.r}
=33
{8.g
16b
8.dd
16g
=34
4a
8g}
==
!!!AGN: erzaehlendes Volks - Lied, Ballade, Spott
!!!ONB: ESAC (Essen Associative Code) Database: FINK
!!!AMT: simple duple
!!!AIN: vox
!!!EED: Helmut Schaffrath
!!!EEV: 1.0
*-
